src/22/panel/laptopdisconnected.svg

<svg xmlns="http://www.w3.org/2000/svg" width="22" height="22"><defs><style id="current-color-scheme" type="text/css"></style></defs><path d="M4 4c-1.108 0-2 .892-2 2v8c0 1.108.892 2 2 2H2v1c0 .554.892 1 2 1h14c1.108 0 2-.446 2-1v-1h-2c1.108 0 2-.892 2-2V6c0-1.108-.892-2-2-2zm6 1h2v.5h-2zM5 6h12v8H5zm4 10h4v.5H9z" fill="currentColor" color="#5294e2"/></svg>

<svg xmlns="http://www.w3.org/2000/svg" width="22" height="22" version="1.1">
 <defs>
  <style id="current-color-scheme" type="text/css">
   .ColorScheme-Text { color:#dfdfdf; } .ColorScheme-Highlight { color:#5294e2; }
  </style>
 </defs>
 <path style="fill:currentColor" class="ColorScheme-Highlight" d="M 4,4 C 2.892,4 2,4.892 2,6 V 14 C 2,15.108 2.892,16 4,16 H 2 V 17 C 2,17.554 2.892,18 4,18 H 18 C 19.108,18 20,17.554 20,17 V 16 H 18 C 19.108,16 20,15.108 20,14 V 6 C 20,4.892 19.108,4 18,4 Z M 10,5 H 12 V 5.5 H 10 Z M 5,6 H 17 V 14 H 5 Z M 9,16 H 13 V 16.5 H 9 Z"/>
</svg>
